app/assets/icons/twitter.svg

<?xml version="1.0" encoding="UTF-8" standalone="no"?>
<svg width="512px" height="512px" viewBox="0 0 512 512" version="1.1" xmlns="http://www.w3.org/2000/svg" xmlns:xlink="http://www.w3.org/1999/xlink" xmlns:sketch="http://www.bohemiancoding.com/sketch/ns">
    <!-- Generator: Sketch 3.3.3 (12072) - http://www.bohemiancoding.com/sketch -->
    <title>twitter</title>
    <desc>Created with Sketch.</desc>
    <defs></defs>
    <g id="Page-1" stroke="none" stroke-width="1" fill="none" fill-rule="evenodd" sketch:type="MSPage">
        <g id="twitter" sketch:type="MSArtboardGroup" fill="#000000">
            <g sketch:type="MSLayerGroup" transform="translate(26.000000, 70.000000)" id="Shape">
                <path d="M460,44.1636727 C443.105788,51.6926148 424.926148,56.742515 405.92016,58.9461078 C425.38523,47.2854291 440.259481,28.8303393 447.329341,6.88622754 C429.149701,17.6287425 408.9501,25.5249501 387.556886,29.748503 C370.295409,11.3852295 345.872255,0 318.786427,0 C266.726547,0 224.582834,42.1437126 224.582834,94.1117764 C224.582834,101.457086 225.409182,108.710579 227.061876,115.596806 C148.742515,111.648703 79.3293413,74.1876248 32.8702595,17.261477 C24.7904192,31.1257485 20.1077844,47.2854291 20.1077844,64.5469062 C20.1077844,97.2335329 36.7265469,125.972056 61.9760479,142.866267 C46.5508982,142.407186 32.0439122,138.183633 19.2814371,131.113772 L19.2814371,132.307385 C19.2814371,177.94012 51.7844311,215.952096 94.8463074,224.582834 C86.9500998,226.694611 78.5948104,227.888224 70.0558882,227.888224 C63.996008,227.888224 58.1197605,227.337325 52.3353293,226.235529 C64.3632735,263.60479 99.0698603,290.874251 140.295409,291.608782 C108.067864,316.858283 67.4850299,331.916168 23.3213573,331.916168 C15.7005988,331.916168 8.26347305,331.457086 0.826347305,330.630739 C42.6027944,357.165669 92.0918164,372.774451 145.253493,372.774451 C318.510978,372.774451 413.265469,229.357285 413.265469,105.037924 C413.265469,100.998004 413.173653,96.8662675 412.99002,92.8263473 C431.44511,79.6047904 447.329341,62.9860279 460,44.1636727 L460,44.1636727 L460,44.1636727 Z" sketch:type="MSShapeGroup"></path>
            </g>
        </g>
    </g>
</svg>

<?xml version="1.0" encoding="utf-8"?>
<!-- Generator: Adobe Illustrator 19.2.1, SVG Export Plug-In . SVG Version: 6.00 Build 0)  -->
<svg version="1.1" id="Calque_1" xmlns:sketch="http://www.bohemiancoding.com/sketch/ns"
	 xmlns="http://www.w3.org/2000/svg" xmlns:xlink="http://www.w3.org/1999/xlink" x="0px" y="0px" width="512px" height="512px"
	 viewBox="0 0 512 512" enable-background="new 0 0 512 512" xml:space="preserve">
<title>twitter</title>
<desc>Created with Sketch.</desc>
<g id="Page-1" sketch:type="MSPage">
	<g id="twitter" sketch:type="MSArtboardGroup">
		<g id="Shape" transform="translate(26.000000, 70.000000)" sketch:type="MSLayerGroup">
			<path sketch:type="MSShapeGroup" d="M460,44.2c-16.9,7.5-35.1,12.6-54.1,14.8c19.5-11.7,34.3-30.1,41.4-52.1
				c-18.2,10.7-38.4,18.6-59.8,22.9C370.3,11.4,345.9,0,318.8,0c-52.1,0-94.2,42.1-94.2,94.1c0,7.3,0.8,14.6,2.5,21.5
				c-78.3-3.9-147.7-41.4-194.2-98.3c-8.1,13.9-12.8,30-12.8,47.3c0,32.7,16.6,61.4,41.9,78.3c-15.4-0.5-29.9-4.7-42.7-11.8v1.2
				c0,45.6,32.5,83.6,75.6,92.3c-7.9,2.1-16.3,3.3-24.8,3.3c-6.1,0-11.9-0.6-17.7-1.7c12,37.4,46.7,64.6,88,65.4
				c-32.2,25.2-72.8,40.3-117,40.3c-7.6,0-15.1-0.5-22.5-1.3c41.8,26.5,91.3,42.1,144.4,42.1c173.3,0,268-143.4,268-267.7
				c0-4-0.1-8.2-0.3-12.2C431.4,79.6,447.3,63,460,44.2L460,44.2L460,44.2z"/>
		</g>
	</g>
</g>
</svg>
